workspaces/client/public/images/svg/cash-transfer.svg

<svg width="24" height="24" viewBox="0 0 24 24" fill="none" xmlns="http://www.w3.org/2000/svg">
<path d="M17.12 9.88C16.5577 9.31774 15.7952 9.00187 15 9.00187C14.2048 9.00187 13.4423 9.31774 12.88 9.88C12.3177 10.4423 12.0019 11.2048 12.0019 12C12.0019 12.7952 12.3177 13.5577 12.88 14.12C13.1584 14.3984 13.4889 14.6192 13.8527 14.7699C14.2164 14.9206 14.6063 14.9981 15 14.9981C15.3937 14.9981 15.7836 14.9206 16.1473 14.7699C16.5111 14.6192 16.8416 14.3984 17.12 14.12C17.3984 13.8416 17.6192 13.5111 17.7699 13.1473C17.9206 12.7836 17.9981 12.3937 17.9981 12C17.9981 11.6063 17.9206 11.2164 17.7699 10.8527C17.6192 10.4889 17.3984 10.1584 17.12 9.88ZM7 6V18H23V6H7ZM22 14C21.47 14 19.96 14.21 19.59 14.59C19.21 14.96 19 16.47 19 17H11C11 16.47 10.79 14.96 10.41 14.59C10.04 14.21 8.53 14 8 14V10C8.53 10 10.04 9.79 10.41 9.41C10.79 9.04 11 7.53 11 7H19C19 7.53 19.21 9.04 19.59 9.41C19.96 9.79 21.47 10 22 10V14ZM5 8H3C2.45 8 2 7.55 2 7C2 6.45 2.45 6 3 6H5V8ZM5 13H2C1.45 13 1 12.55 1 12C1 11.45 1.45 11 2 11H5V13ZM5 18H1C0.448 18 0 17.55 0 17C0 16.45 0.448 16 1 16H5V18Z" fill="white"/>
</svg>

<svg xmlns="http://www.w3.org/2000/svg" width="24" height="24" fill="none"><path fill="#fff" d="M17.12 9.88a2.998 2.998 0 1 0-4.24 4.24 2.998 2.998 0 0 0 4.24-4.24M7 6v12h16V6zm15 8c-.53 0-2.04.21-2.41.59-.38.37-.59 1.88-.59 2.41h-8c0-.53-.21-2.04-.59-2.41C10.04 14.21 8.53 14 8 14v-4c.53 0 2.04-.21 2.41-.59.38-.37.59-1.88.59-2.41h8c0 .53.21 2.04.59 2.41.37.38 1.88.59 2.41.59zM5 8H3c-.55 0-1-.45-1-1s.45-1 1-1h2zm0 5H2c-.55 0-1-.45-1-1s.45-1 1-1h3zm0 5H1c-.552 0-1-.45-1-1s.448-1 1-1h4z"/></svg>
